images/design.svg

<svg height="20" viewBox="0 0 29 20" width="29" xmlns="http://www.w3.org/2000/svg" xmlns:xlink="http://www.w3.org/1999/xlink"><linearGradient id="a" x1="0%" x2="83.153209%" y1="75.487875%" y2="38.256793%"><stop offset="0" stop-color="#fff" stop-opacity=".2"/><stop offset="1" stop-color="#fff"/></linearGradient><g fill="none" fill-rule="evenodd"><path d="m19 10c-.0061024-3.74014205-2.5997333-6.9782061-6.2483-7.8008.6851977-.55024174 1.4400977-1.00753274 2.2451-1.36 3.6456138 1.5869588 6.0032327 5.18455447 6.0032327 9.1606 0 3.9760455-2.3576189 7.5736412-6.0032327 9.1606-.8050023-.3524673-1.5599023-.8097583-2.2451-1.36 3.648421-.8225607 6.242011-4.0604077 6.2483-7.8004z"/><path d="m3.09352041 3.85955183c2.80951042-3.61143262 7.71178759-4.85534206 11.90327959-3.02035183-.8050023.35246726-1.5599023.80975826-2.2451 1.36-2.99837936-.681862-6.12221482.41515966-8.03590005 2.8220297-1.91368524 2.40687005-2.27849727 5.6975716-.93845948 8.4651542 1.34003778 2.7675825 4.1477382 4.522183 7.22265953 4.5136161.5894835-.0015701 1.1769746-.0685127 1.7517-.1996.6851977.5502417 1.4400977 1.0075327 2.2451 1.36-4.191492 1.8349902-9.09376917.5910808-11.90327959-3.0203518-2.80951042-3.6114327-2.80951042-8.66906374 0-12.28049637zm15.90647959-3.85955237c4.0678401-.00059945 7.730562 2.463249 9.2633169 6.2312705 1.5327549 3.76802149.6299732 8.08902444-2.2832071 10.92816224-2.9131804 2.8391379-7.2559887 3.630401-10.9833098 2.0011678 3.6456138-1.5869588 6.0032327-5.1845545 6.0032327-9.16060054 0-3.97604499-2.3576189-7.57364066-6.0032327-9.16059946 1.2618698-.55401368 2.6250685-.83985227 4.0032-.83940054zm-6.2483 2.19920054c3.6519487.81715526 6.2482032 4.05854507 6.2482032 7.8008 0 3.7422549-2.5962545 6.9836447-6.2482032 7.8008-2.3723138-1.8940117-3.75315451-4.7651533-3.75170115-7.8008-.00145336-3.03564673 1.37938735-5.90678832 3.75170115-7.8008z" fill="url(#a)" fill-rule="nonzero"/></g></svg>

<?xml version="1.0" encoding="UTF-8"?>
<svg width="29px" height="20px" viewBox="0 0 29 20" version="1.1" xmlns="http://www.w3.org/2000/svg" xmlns:xlink="http://www.w3.org/1999/xlink">
    <title>design</title>
    <defs>
        <linearGradient x1="0%" y1="75.4878754%" x2="83.1532092%" y2="38.2567925%" id="linearGradient-1">
            <stop stop-color="#FFFFFF" stop-opacity="0.2" offset="0%"></stop>
            <stop stop-color="#FFFFFF" offset="100%"></stop>
        </linearGradient>
    </defs>
    <g id="✅-Builder/Article-Layout" stroke="none" stroke-width="1" fill="none" fill-rule="evenodd">
        <g id="Artboard" transform="translate(-134.000000, -37.000000)">
            <g id="design" transform="translate(134.000000, 37.000000)">
                <path d="M19,10 C18.9938976,6.25985795 16.4002667,3.0217939 12.7517,2.1992 C13.4368977,1.64895826 14.1917977,1.19166726 14.9968,0.8392 C18.6424138,2.4261588 21.0000327,6.02375447 21.0000327,9.9998 C21.0000327,13.9758455 18.6424138,17.5734412 14.9968,19.1604 C14.1917977,18.8079327 13.4368977,18.3506417 12.7517,17.8004 C16.400121,16.9778393 18.993711,13.7399923 19,10 Z" id="inner-path"></path>
                <path d="M3.09352041,3.85955183 C5.90303083,0.248119205 10.805308,-0.995790234 14.9968,0.8392 C14.1917977,1.19166726 13.4368977,1.64895826 12.7517,2.1992 C9.75332064,1.517338 6.62948518,2.61435966 4.71579995,5.0212297 C2.80211471,7.42809975 2.43730268,10.7188013 3.77734047,13.4863839 C5.11737825,16.2539664 7.92507867,18.0085669 11,18 C11.5894835,17.9984299 12.1769746,17.9314873 12.7517,17.8004 C13.4368977,18.3506417 14.1917977,18.8079327 14.9968,19.1604 C10.805308,20.9953902 5.90303083,19.7514808 3.09352041,16.1400482 C0.284009993,12.5286155 0.284009993,7.47098446 3.09352041,3.85955183 Z M19,-5.35856692e-07 C23.0678401,-0.000599994693 26.730562,2.46324846 28.2633169,6.23126996 C29.7960718,9.99929145 28.8932901,14.3202944 25.9801098,17.1594322 C23.0669294,19.9985701 18.7241211,20.7898332 14.9968,19.1606 C18.6424138,17.5736412 21.0000327,13.9760455 21.0000327,9.99999946 C21.0000327,6.02395447 18.6424138,2.4263588 14.9968,0.8394 C16.2586698,0.285386322 17.6218685,-0.000452266088 19,-5.35856692e-07 Z M12.7517,2.1992 C16.4036487,3.01635526 18.9999032,6.25774507 18.9999032,10 C18.9999032,13.7422549 16.4036487,16.9836447 12.7517,17.8008 C10.3793862,15.9067883 8.99854549,13.0356467 8.99999885,10 C8.99854549,6.96435327 10.3793862,4.09321168 12.7517,2.1992 Z" id="Combined-Shape" fill="url(#linearGradient-1)" fill-rule="nonzero"></path>
            </g>
        </g>
    </g>
</svg>
